X: 1532
T: Andy's Dummies
R: reel
M: 4/4
K: Eminor
|:E2EF G2GA|B2Bc BAG2|A3B c2cA|BcBA GAGF|
E2EF G2GA|B2Bc BAG2|A3B cAF2|1 G/F/E^DF E4:|2 AGFA G4||
|:G2GA BABd|g2ga ged2|e3f g2ge|dedc BcBA|
[1 G2GA BABd|gfga ged2|e3f gedB|AGFA G4:|
[2 G2GA B3A|BABc BAGB|A3B cAF2|G/F/E^DF E4||

